docs/local/img/index-like/icon2.svg

<svg width="45" height="45" viewBox="0 0 45 45" fill="none" xmlns="http://www.w3.org/2000/svg">
<g clip-path="url(#clip0_2351_1753)">
<path d="M12.2485 9.73753C14.8771 10.229 18.2347 10.5 21.703 10.5C25.1712 10.5 28.5289 10.229 31.1574 9.73753C34.798 9.05625 36.5675 8.07938 36.5675 6.75C36.5675 3.78994 27.2239 3 21.703 3C16.1821 3 6.83838 3.78994 6.83838 6.75C6.83838 8.07938 8.60791 9.05625 12.2485 9.73753ZM21.703 4.5C29.9413 4.5 34.7705 5.96916 35.0749 6.74063C35.0037 6.855 34.4108 7.60312 30.8867 8.26219C28.3445 8.73816 25.0831 9 21.703 9C18.3228 9 15.0615 8.73816 12.5193 8.26247C8.98575 7.60134 8.39786 6.84975 8.3318 6.75881C8.6604 5.96184 13.4845 4.5 21.703 4.5Z" fill="#D2286F"/>
<path d="M44 10.5C44 10.3011 43.9217 10.1103 43.7823 9.96967C43.6429 9.82902 43.4539 9.75 43.2568 9.75H41.0271V6.75C41.0271 2.36569 31.0708 0 21.7031 0C12.3355 0 2.37917 2.36569 2.37917 6.75V9.75H0.149479C-0.0476375 9.75 -0.236681 9.82902 -0.376063 9.96967C-0.515446 10.1103 -0.59375 10.3011 -0.59375 10.5V14.25C-0.592083 18.1847 0.433049 22.05 2.37917 25.4595V38.25C2.37917 42.6343 12.3355 45 21.7031 45C31.0708 45 41.0271 42.6343 41.0271 38.25V25.4595C42.9732 22.05 43.9983 18.1847 44 14.25V10.5ZM15.0141 34.5H28.3922V36H15.0141V34.5ZM29.8415 33.5625C29.8025 33.4029 29.7119 33.261 29.584 33.1591C29.4561 33.0573 29.2983 33.0013 29.1354 33H14.2708C14.1079 33.0013 13.9501 33.0573 13.8222 33.1591C13.6944 33.261 13.6038 33.4029 13.5648 33.5625C9.52556 31.8234 6.1319 28.8444 3.86562 25.0486V9.44775C4.59473 10.0671 5.59047 10.6372 6.83854 11.1487V24.75C6.83854 25.9435 7.30837 27.0881 8.14466 27.932C8.98096 28.7759 10.1152 29.25 11.2979 29.25C12.4806 29.25 13.6149 28.7759 14.4512 27.932C15.2875 27.0881 15.7573 25.9435 15.7573 24.75V20.25C15.7573 19.6533 15.9922 19.081 16.4104 18.659C16.8285 18.2371 17.3956 18 17.987 18C18.5783 18 19.1455 18.2371 19.5636 18.659C19.9818 19.081 20.2167 19.6533 20.2167 20.25V21.75C20.2167 22.9435 20.6865 24.0881 21.5228 24.932C22.3591 25.7759 23.4933 26.25 24.676 26.25C25.8587 26.25 26.993 25.7759 27.8293 24.932C28.6656 24.0881 29.1354 22.9435 29.1354 21.75V20.25C29.1361 19.6535 29.3712 19.0816 29.7892 18.6597C30.2072 18.2379 30.774 18.0007 31.3651 18C32.3503 17.9988 33.2949 17.6034 33.9915 16.9004C34.6882 16.1974 35.0801 15.2442 35.0812 14.25V11.6985C37.0466 11.0636 38.5415 10.3142 39.5406 9.47166V25.0486C37.2743 28.8444 33.8807 31.8234 29.8415 33.5625ZM21.7031 13.5C26.0559 13.5 30.2261 13.0125 33.5948 12.1272V14.25C33.5941 14.8465 33.359 15.4184 32.941 15.8403C32.523 16.2621 31.9562 16.4993 31.3651 16.5C30.3799 16.5012 29.4353 16.8966 28.7387 17.5996C28.042 18.3026 27.6501 19.2558 27.649 20.25V21.75C27.649 22.5456 27.3357 23.3087 26.7782 23.8713C26.2207 24.4339 25.4645 24.75 24.676 24.75C23.8876 24.75 23.1314 24.4339 22.5739 23.8713C22.0163 23.3087 21.7031 22.5456 21.7031 21.75V20.25C21.7031 19.2554 21.3116 18.3016 20.6147 17.5984C19.9178 16.8951 18.9726 16.5 17.987 16.5C17.0014 16.5 16.0562 16.8951 15.3593 17.5984C14.6624 18.3016 14.2708 19.2554 14.2708 20.25V24.75C14.2708 25.5456 13.9576 26.3087 13.4001 26.8713C12.8426 27.4339 12.0864 27.75 11.2979 27.75C10.5094 27.75 9.75328 27.4339 9.19575 26.8713C8.63822 26.3087 8.325 25.5456 8.325 24.75V11.6897C11.8776 12.8419 16.667 13.5 21.7031 13.5ZM21.7031 1.5C32.215 1.5 39.5406 4.26675 39.5406 6.75C39.5406 8.01778 37.4659 9.42769 34.1265 10.4289C30.7452 11.4419 26.3334 12 21.7031 12C16.3539 12 11.3019 11.2508 7.84237 9.94481C5.35208 9.00516 3.86562 7.8105 3.86562 6.75C3.86562 4.26675 11.1913 1.5 21.7031 1.5ZM0.892708 11.25H2.37917V22.0178C1.40027 19.547 0.895826 16.9109 0.892708 14.25V11.25ZM21.7031 43.5C11.1913 43.5 3.86562 40.7332 3.86562 38.25V27.7153C6.34171 31.0536 9.68613 33.634 13.5276 35.1703V36.75C13.5276 36.9489 13.6059 37.1397 13.7453 37.2803C13.8847 37.421 14.0737 37.5 14.2708 37.5H29.1354C29.3325 37.5 29.5216 37.421 29.661 37.2803C29.8003 37.1397 29.8786 36.9489 29.8786 36.75V35.1703C33.7201 33.634 37.0645 31.0536 39.5406 27.7153V38.25C39.5406 40.7332 32.215 43.5 21.7031 43.5ZM42.5135 14.25C42.5104 16.911 42.006 19.5471 41.0271 22.0179V11.25H42.5135V14.25Z" fill="#D2286F"/>
</g>
<defs>
<clipPath id="clip0_2351_1753">
<rect width="45" height="45" fill="white"/>
</clipPath>
</defs>
</svg>

<svg width="45" height="45" viewBox="0 0 45 45" fill="none" xmlns="http://www.w3.org/2000/svg"><g clip-path="url(#clip0_2351_1753)" fill="#D2286F"><path d="M12.248 9.738c2.63.491 5.987.762 9.455.762s6.826-.271 9.454-.762c3.641-.682 5.41-1.659 5.41-2.988 0-2.96-9.343-3.75-14.864-3.75-5.52 0-14.865.79-14.865 3.75 0 1.33 1.77 2.306 5.41 2.988zM21.703 4.5c8.238 0 13.067 1.47 13.372 2.24-.071.115-.664.863-4.188 1.522-2.543.476-5.804.738-9.184.738-3.38 0-6.641-.262-9.184-.738-3.533-.66-4.121-1.412-4.187-1.503C8.66 5.962 13.484 4.5 21.703 4.5z"/><path d="M44 10.5a.753.753 0 00-.218-.53.74.74 0 00-.525-.22h-2.23v-3c0-4.384-9.956-6.75-19.324-6.75C12.336 0 2.38 2.366 2.38 6.75v3H.15a.74.74 0 00-.525.22.753.753 0 00-.218.53v3.75A22.636 22.636 0 002.38 25.46v12.79c0 4.384 9.956 6.75 19.324 6.75 9.368 0 19.324-2.366 19.324-6.75V25.46A22.636 22.636 0 0044 14.25V10.5zm-28.986 24h13.378V36H15.014v-1.5zm14.828-.938a.74.74 0 00-.707-.562H14.271a.73.73 0 00-.706.563 20.956 20.956 0 01-9.7-8.514V9.448c.73.62 1.725 1.19 2.974 1.7V24.75a4.52 4.52 0 001.306 3.182 4.44 4.44 0 003.153 1.318 4.44 4.44 0 003.153-1.318 4.52 4.52 0 001.306-3.182v-4.5c0-.597.235-1.169.653-1.591a2.22 2.22 0 013.154 0c.418.422.653.994.653 1.591v1.5a4.52 4.52 0 001.306 3.182 4.439 4.439 0 003.153 1.318 4.44 4.44 0 003.153-1.318 4.52 4.52 0 001.306-3.182v-1.5a2.265 2.265 0 01.654-1.59 2.222 2.222 0 011.576-.66 3.704 3.704 0 002.627-1.1 3.771 3.771 0 001.09-2.65v-2.552c1.965-.634 3.46-1.384 4.459-2.226v15.577a20.956 20.956 0 01-9.7 8.514zM21.703 13.5c4.353 0 8.523-.488 11.892-1.373v2.123a2.26 2.26 0 01-.654 1.59 2.222 2.222 0 01-1.576.66 3.704 3.704 0 00-2.626 1.1 3.771 3.771 0 00-1.09 2.65v1.5c0 .796-.313 1.559-.87 2.121a2.96 2.96 0 01-2.103.879 2.96 2.96 0 01-2.102-.879 3.014 3.014 0 01-.87-2.121v-1.5c0-.995-.392-1.948-1.09-2.652a3.699 3.699 0 00-2.627-1.098c-.986 0-1.93.395-2.628 1.098a3.767 3.767 0 00-1.088 2.652v4.5c0 .796-.313 1.559-.87 2.121a2.96 2.96 0 01-2.103.879 2.96 2.96 0 01-2.102-.879 3.014 3.014 0 01-.871-2.121V11.69c3.553 1.152 8.342 1.81 13.378 1.81zm0-12c10.512 0 17.838 2.767 17.838 5.25 0 1.268-2.075 2.678-5.414 3.679C30.744 11.442 26.332 12 21.703 12c-5.35 0-10.401-.75-13.86-2.055-2.49-.94-3.977-2.135-3.977-3.195 0-2.483 7.325-5.25 17.837-5.25zM.893 11.25h1.486v10.768A21.16 21.16 0 01.893 14.25v-3zm20.81 32.25c-10.512 0-17.837-2.767-17.837-5.25V27.715a22.383 22.383 0 009.662 7.455v1.58c0 .199.078.39.217.53.14.141.329.22.526.22h14.864a.74.74 0 00.526-.22.754.754 0 00.218-.53v-1.58a22.383 22.383 0 009.662-7.455V38.25c0 2.483-7.326 5.25-17.838 5.25zm20.81-29.25a21.159 21.159 0 01-1.486 7.768V11.25h1.486v3z"/></g><defs><clipPath id="clip0_2351_1753"><path fill="#fff" d="M0 0h45v45H0z"/></clipPath></defs></svg>
